svg/device/fax_fill.svg

<svg xmlns="http://www.w3.org/2000/svg" width="24" height="24" viewBox="0 0 24 24"><g fill="none"><path d="M24,0 L24,24 L0,24 L0,0 L24,0 Z M12.5935,23.2578 L12.5819,23.2595 L12.5109,23.295 L12.4919,23.2987 L12.4767,23.295 L12.4057,23.2595 C12.3958,23.2564 12.387,23.259 12.3821,23.2649 L12.378,23.2758 L12.3609,23.7031 L12.3659,23.7235 L12.3769,23.7357 L12.4805,23.8097 L12.4953,23.8136 L12.5071,23.8097 L12.6107,23.7357 L12.6233,23.7197 L12.6267,23.7031 L12.6096,23.2758 C12.6076,23.2657 12.601,23.2593 12.5935,23.2578 Z M12.8584,23.1453 L12.8445,23.1473 L12.6598,23.2397 L12.6499,23.2499 L12.6472,23.2611 L12.6651,23.6906 L12.6699,23.7034 L12.6784,23.7105 L12.8793,23.8032 C12.8914,23.8069 12.9022,23.803 12.9078,23.7952 L12.9118,23.7812 L12.8777,23.1665 C12.8753,23.1546 12.8674,23.147 12.8584,23.1453 Z M12.143,23.1473 C12.1332,23.1424 12.1222,23.1453 12.1156,23.1526 L12.1099,23.1665 L12.0758,23.7812 C12.0751,23.7927 12.0828,23.8019 12.0926,23.8046 L12.1083,23.8032 L12.3092,23.7105 L12.3186,23.7024 L12.3225,23.6906 L12.3404,23.2611 L12.3372,23.2485 L12.3278,23.2397 L12.143,23.1473 Z"/><path fill="#09244B" d="M5,3 C3.89543,3 3,3.89543 3,5 L3,19 C3,20.1046 3.89543,21 5,21 L6,21 C7.10457,21 8,20.1046 8,19 L8,5 C8,3.89543 7.10457,3 6,3 L5,3 Z M19,4 C20.1046,4 21,4.89543 21,6 L21,19 C21,20.1046 20.1046,21 19,21 L9,21 L9,4 L19,4 Z M13,16 C12.48715,16 12.0644908,16.386027 12.0067275,16.8833761 L12,17.01 C12,17.5623 12.4477,18.01 13,18.01 C13.51285,18.01 13.9355092,17.623973 13.9932725,17.1266239 L14,17 C14,16.4477 13.5523,16 13,16 Z M17,16 C16.48715,16 16.0644908,16.386027 16.0067275,16.8833761 L16,17.01 C16,17.5623 16.4477,18.01 17,18.01 C17.51285,18.01 17.9355092,17.623973 17.9932725,17.1266239 L18,17 C18,16.4477 17.5523,16 17,16 Z M13,13 C12.48715,13 12.0644908,13.386027 12.0067275,13.8833761 L12,14.01 C12,14.5623 12.4477,15.01 13,15.01 C13.51285,15.01 13.9355092,14.623973 13.9932725,14.1266239 L14,14 C14,13.4477 13.5523,13 13,13 Z M17,13 C16.48715,13 16.0644908,13.386027 16.0067275,13.8833761 L16,14.01 C16,14.5623 16.4477,15.01 17,15.01 C17.51285,15.01 17.9355092,14.623973 17.9932725,14.1266239 L18,14 C18,13.4477 17.5523,13 17,13 Z M17.5,7 L12.5,7 C11.7203294,7 11.0795543,7.59488554 11.0068668,8.35553954 L11,8.5 L11,10.5 C11,11.2796706 11.5949121,11.9204457 12.3555442,11.9931332 L12.5,12 L17.5,12 C18.2796706,12 18.9204457,11.4050879 18.9931332,10.6444558 L19,10.5 L19,8.5 C19,7.72030118 18.4050879,7.079551 17.6444558,7.00686655 L17.5,7 Z M17,9 L17,10 L13,10 L13,9 L17,9 Z"/></g></svg>

<svg xmlns="http://www.w3.org/2000/svg" width="24" height="24"><g fill="none"><path d="M24 0v24H0V0zM12.594 23.258l-.012.002-.071.035-.02.004-.014-.004-.071-.036c-.01-.003-.019 0-.024.006l-.004.01-.017.428.005.02.01.013.104.074.015.004.012-.004.104-.074.012-.016.004-.017-.017-.427c-.002-.01-.009-.017-.016-.018m.264-.113-.014.002-.184.093-.01.01-.003.011.018.43.005.012.008.008.201.092c.012.004.023 0 .029-.008l.004-.014-.034-.614c-.003-.012-.01-.02-.02-.022m-.715.002a.023.023 0 0 0-.027.006l-.006.014-.034.614c0 .012.007.02.017.024l.015-.002.201-.093.01-.008.003-.011.018-.43-.003-.012-.01-.01z"/><path fill="#09244B" d="M5 3a2 2 0 0 0-2 2v14a2 2 0 0 0 2 2h1a2 2 0 0 0 2-2V5a2 2 0 0 0-2-2zm14 1a2 2 0 0 1 2 2v13a2 2 0 0 1-2 2H9V4zm-6 12a1 1 0 0 0-.993.883L12 17.01a1 1 0 0 0 1.993.117L14 17a1 1 0 0 0-1-1m4 0a1 1 0 0 0-.993.883L16 17.01a1 1 0 0 0 1.993.117L18 17a1 1 0 0 0-1-1m-4-3a1 1 0 0 0-.993.883L12 14.01a1 1 0 0 0 1.993.117L14 14a1 1 0 0 0-1-1m4 0a1 1 0 0 0-.993.883L16 14.01a1 1 0 0 0 1.993.117L18 14a1 1 0 0 0-1-1m.5-6h-5a1.5 1.5 0 0 0-1.493 1.356L11 8.5v2a1.5 1.5 0 0 0 1.356 1.493L12.5 12h5a1.5 1.5 0 0 0 1.493-1.356L19 10.5v-2a1.5 1.5 0 0 0-1.356-1.493zM17 9v1h-4V9z"/></g></svg>
